X: 23539
T: Life Is All Chequered
R: jig
M: 6/8
K: Dmajor
|:AFF F2d|AFF F2d|AFF F2E|DB,B, B,2d|
AFF FEF|AFA dAF|~E3 FEF|1 DB,B, B,2d:|2 DB,B, B,2A||
dcd ede|fed cBA|~d3 ede|fdB B2e|
fed edc|~d3 AFD|~E3 FEF|1 DB,B, B,2A:|2 DB,B, B,2 d||

